!!!COM: Bach, Johann Sebastian
!!!CDT: 1685/3//-1750/7/28/
!!!OTL@@DE: Aus meines Herzens Grunde
!!!OTL@EN:  From the depths of my heart
!!!AGN: 4-Part Chorale
!!!SCT: BH 001
!!!SCT: BWV 269
**harm	**root	**kern	**kern	**kern	**kern
!	!	!bass	!tenor	!alto	!sprno
*	*Iorgan	*Iorgan	*Iorgan	*Iorgan	*Iorgan
*	*	*clefF4	*clefF4	*clefG2	*clefG2
*k[f#c#g#d#a#]	*k[f#c#g#d#a#]	*k[f#c#g#d#a#]	*k[f#c#g#d#a#]	*k[f#c#g#d#a#]	*k[f#c#g#d#a#]
*B:	*B:	*B:	*B:	*B:	*B:
*M3/4	*M3/4	*M3/4	*M3/4	*M3/4	*M3/4
*MM60	*MM60	*MM60	*MM60	*MM60	*MM60
*>[A,A,B]	*>[A,A,B]	*>[A,A,B]	*>[A,A,B]	*>[A,A,B]	*>[A,A,B]
*>A	*>A	*>A	*>A	*>A	*>A
I	4GG	4BB	4d#	4f#	4b
=1	=1	=1	=1	=1	=1
I	4GG	4B	4d#	4f#	2b
IVb[vi]	4EE	4G#	8e	4g#	.
.	.	.	8d#	.	.
Vb	4DD	4A#	4c#	4f#	4ff#
=2	=2	=2	=2	=2	=2
I	4GG	4B	4B	2f#	4.dd#
V	4DD	4F#	4A#	.	.
.	.	.	.	.	8cc#
vi	4EE	4G#	4B	4d#	4b
=3	=3	=3	=3	=3	=3
IV	4CC	4E	8e	8g#	4.b
.	.	.	8d#	8f#	.
IV7d	8CC	8D#	4e	8g#	.
viiob	8FF#	8C#	.	8a#	8cc#
I	4GG	4BB	4f#	4b	4dd#
=4	=4	=4	=4	=4	=4
V;	2DD;	2F#;	2f#;	2a#;	2cc#;
I	4GG	4BB	4f#	4b	4dd#
=5	=5	=5	=5	=5	=5
Vb	4DD	4AA#	4c#	4f#	2ff#
vi7b	4EE	4BB	4d#	4g#	.
viiob	4FF#	4C#	4e	4a#	4ee
=6	=6	=6	=6	=6	=6
Ib	4GG	4D#	4f#	2b	4dd#
ii7b	4AA	4E	4g#	.	2cc#
V7	4DD	4F#	8f#	4a#	.
.	.	.	8e	.	.
=7	=7	=7	=7	=7	=7
I;	2GG;	2BB;	2d#;	2f#;	2b;
=:|!	=:|!	=:|!	=:|!	=:|!	=:|!
*>B	*>B	*>B	*>B	*>B	*>B
I	4GG	4BB	4f#	[4b	4dd#
=8	=8	=8	=8	=8	=8
I	4GG	4BB	4f#	8b]	4dd#
.	.	.	.	8a#	.
ii	4AA	4C#	4e	8g#	4ee
.	.	.	.	8a#	.
Ib	4GG	4D#	8d#	[4b	4ff#
.	.	.	8c#	.	.
=9	=9	=9	=9	=9	=9
Ib	4.GG	4.D#	8d#	8b]	4.ff#
.	.	.	8e	8cc#	.
.	.	.	4f#	8b	.
V7c	8DD	8C#	.	8a#	8ee
I	4GG	4BB	4f#	4b	4dd#
!!linebreak: 2
=10	=10	=10	=10	=10	=10
V;	2DD;	2F#;	2f#;	2a#;	2cc#;
vi	4EE	[4G#	4d#	4g#	4b
=11	=11	=11	=11	=11	=11
vi	4EE	4G#]	4B	4g#	2dd#
iiib[Ic]	4BB	4F#	4d#	8a#	.
.	.	.	.	8b	.
iib	4AA	4E	4g#	4cc#	4ee
=12	=12	=12	=12	=12	=12
Ib	2GG	4.D#	2f#	4cc#	2ff#
.	.	.	.	4.b	.
.	.	8E	.	.	.
V7	4DD	4F#	4f#	.	4ee
.	.	.	.	8a#	.
=13	=13	=13	=13	=13	=13
I	4GG	8BB	2.f#	2b	2.dd#
.	.	8C#	.	.	.
Ib	4GG	4D#	.	.	.
V7/IV	4GG	4BB	.	4a	.
=14	=14	=14	=14	=14	=14
IV;	2CC;	2E;	2e;	2g#;	2b;
I	4GG	4BB	4f#	4b	4dd#
=15	=15	=15	=15	=15	=15
Vb	4DD	4AA#	8f#	4.cc#	2ff#
.	.	.	8e	.	.
I	4GG	4BB	4d#	.	.
.	.	.	.	8b	.
viiob	4FF#	4C#	4e	4a#	4ee
=16	=16	=16	=16	=16	=16
I	2GG	4D#	2f#	2b	2dd#
.	.	4BB	.	.	.
V	4DD	4F#	8f#	[4a#	4cc#
.	.	.	8e	.	.
=17	=17	=17	=17	=17	=17
vi	4EE	8G#	4d#	8a#]	4.b
.	.	8F#	.	8g#	.
IV	8CC	8E	4e	8g#	.
viio7d	8FF#	8D#	.	8a#	8cc#
I	4GG	8C#	4f#	4b	4dd#
.	.	8BB	.	.	.
=18	=18	=18	=18	=18	=18
V;	2DD;	2F#;	2f#;	2a#;	2cc#;
I	4GG	[4B	4f#	4b	4dd#
=19	=19	=19	=19	=19	=19
Vb	2DD	4B]	2f#	2cc#	2ff#
.	.	4A#	.	.	.
IVb	4CC	[4G#	4g#	8b	4ee
.	.	.	.	8a#	.
=20	=20	=20	=20	=20	=20
vi	4EE	8G#]	2g#	2b	4dd#
.	.	8F#	.	.	.
ii7b	4AA	4E	.	.	2cc#
V7	4DD	4F#	8f#	4a#	.
.	.	.	8e	.	.
=21	=21	=21	=21	=21	=21
I;	2GG;	2BB;	2d#;	2f#;	2b;
==	==	==	==	==	==
*-	*-	*-	*-	*-	*-
!!chor2scor: -l 2 -s 0.6 -o %b.pmx
!!!ONB1: Text by Georg Niege; 16th Century secular melody, first appears 
!!!ONB2: in sacred use in Neu Catechismus-Gesangbüchlein, Hamburg, 1598. 
!!!YEC: Copyright 2001 by Craig Stuart Sapp
!!!license: GNU General Public License (http://www.gnu.org/copyleft/gpl.html)
!!!SMA: 371 Bach Chorales, edited by Ludwig Erk, C.F. Peters
!!!PDT: 1850, 1865
!!!ONB: Harmony and Root analysis done manually by Craig Sapp
!! Beat 2 of measure 1 chord could also be IVb (with root on C)
